images/gmail.svg

<?xml version="1.0" encoding="utf-8"?>
<!-- Generated by IcoMoon.io -->
<!DOCTYPE svg PUBLIC "-//W3C//DTD SVG 1.1//EN" "http://www.w3.org/Graphics/SVG/1.1/DTD/svg11.dtd">
<svg version="1.1" xmlns="http://www.w3.org/2000/svg" xmlns:xlink="http://www.w3.org/1999/xlink" width="30" height="30" viewBox="0 0 30 30">
<g>
	<line stroke-width="1" x1="" y1="" x2="" y2="" stroke="#449FDB" opacity=""></line>
</g>
	<path d="M3.101 6.209v17.729h23.84v-17.729h-23.84zM24 20.456l-6.191-4.64 6.191-5.1v9.74zM22.382 7l-7.441 6.384-7.441-6.384h14.882zM12.175 15.717l-6.175 4.621v-9.682l6.175 5.061zM6.4 23.051v-1.525l6.932-5.188 1.608 1.318 1.478-1.217 6.945 5.203v1.408h-16.963z" fill="#000000"></path>
</svg>

<?xml version="1.0" encoding="UTF-8" standalone="no"?>
<!-- Created with Inkscape (http://www.inkscape.org/) -->

<svg
   xmlns:dc="http://purl.org/dc/elements/1.1/"
   xmlns:cc="http://creativecommons.org/ns#"
   xmlns:rdf="http://www.w3.org/1999/02/22-rdf-syntax-ns#"
   xmlns:svg="http://www.w3.org/2000/svg"
   xmlns="http://www.w3.org/2000/svg"
   xmlns:inkscape="http://www.inkscape.org/namespaces/inkscape"
   version="1.1"
   width="30"
   height="30"
   viewBox="0 0 30 30"
   id="svg2">
  <metadata
     id="metadata10">
    <rdf:RDF>
      <cc:Work
         rdf:about="">
        <dc:format>image/svg+xml</dc:format>
        <dc:type
           rdf:resource="http://purl.org/dc/dcmitype/StillImage" />
      </cc:Work>
    </rdf:RDF>
  </metadata>
  <defs
     id="defs8" />
  <path
     d="M 3.1,6.21 V 23.938 H 26.94 V 6.208 H 3.1 z M 24,20.455 17.81,15.815 24,10.715 v 9.74 z M 22.382,7 14.942,13.384 7.5,7 H 22.382 z M 12.175,15.717 6,20.337 v -9.68 l 6.175,5.06 z M 6.4,23.05 v -1.524 l 6.932,-5.188 1.608,1.318 1.478,-1.217 6.945,5.2 v 1.41 H 6.4 z"
     inkscape:connector-curvature="0"
     id="path4" />
</svg>
